X: 1
T: Inverness Fiddlers
M: 6/8
L: 1/8
R: jig
K: Dmaj
|:d3 dcB|FBd fed|c2 e a2 f|ecA ABc|
d3 dcB|FBd fed|c2 e a2 e|fec B2 c:|
|:d2 B F2 B|def faf|ece a2 f|ecA ABc|dcB FBd|
fed fed|c2 e a2 e|1 fec B2 c:|2 fec B2 e||
|:f2 B dcB|fdf fed|cde a2 f|ecA ABc|d2 f B2 d|
fdf fed|c2 e a2 e|1 fec B2 e:|2 fec B2 c||
|:dBB FBd|fed fed|cde a2 f|ecA ABc|
dff B2 f|def fed|cee aee|1 fec B2 c:|2 fec B3||
